frontend/public/svg/interface/mail-gift.svg

<svg width="160" height="168" viewBox="0 0 160 168" fill="none" xmlns="http://www.w3.org/2000/svg">
<g clip-path="url(#clip0)">
<path d="M153.548 63.9977C152.701 63.4286 151.902 62.7937 151.158 62.0986C148.713 59.8932 146.272 57.6823 143.832 55.4665C138.462 50.5873 132.904 45.5488 127.386 40.6495C126.686 40.0609 126.124 39.3268 125.738 38.499C125.353 37.6711 125.155 36.7698 125.157 35.8575C125.055 32.3425 124.658 28.8423 123.972 25.393C123.262 22.1802 121.996 21.1869 118.32 20.967C117.195 20.8938 116.039 20.8874 114.919 20.8809C114.048 20.8809 113.178 20.8734 112.308 20.8404C111.731 20.8079 111.159 20.7365 110.593 20.6269C110.359 20.5873 110.137 20.5472 109.924 20.5135C109.872 20.5084 109.822 20.4907 109.779 20.4616C109.735 20.4325 109.7 20.393 109.676 20.3469C109.65 20.3013 109.636 20.2507 109.634 20.1987C109.631 20.1467 109.641 20.0949 109.663 20.0473C110.031 19.2411 110.413 18.4676 110.787 17.7074C111.599 16.1783 112.286 14.5871 112.843 12.9489C113.961 9.32296 112.414 5.98996 108.803 4.25677C106.253 3.00084 103.346 2.65992 100.573 3.29077C96.1742 4.22417 92.3504 6.33942 87.9649 9.20971C87.9101 9.24558 87.8463 9.26478 87.7805 9.26478C87.7153 9.26478 87.6514 9.24558 87.5967 9.20971C82.9961 6.21034 78.4835 6.08357 74.1847 8.8429C74.1254 8.88214 74.0543 8.90166 73.9833 8.89803C73.9123 8.8944 73.8438 8.86774 73.7891 8.82266C73.0932 8.24925 72.4207 7.67676 71.769 7.10984C70.4025 5.8936 68.9741 4.74789 67.4904 3.67717C64.3701 1.5042 61.5641 0.45166 58.8187 0.45166C58.0351 0.45302 57.254 0.537599 56.4885 0.704405C52.5448 1.55803 49.2234 4.53144 47.61 8.64973C46.1503 12.3691 46.4044 16.1813 48.2928 18.8609C48.5132 19.2043 48.695 19.5706 48.835 19.9535C48.9289 20.1669 49.0305 20.4008 49.1498 20.6674C49.1708 20.7152 49.1803 20.7668 49.178 20.8188C49.1757 20.8709 49.1614 20.922 49.1362 20.9677C49.111 21.0134 49.0757 21.0524 49.0329 21.0824C48.99 21.1123 48.9408 21.1319 48.8891 21.14C47.7507 21.2937 46.6389 21.4339 45.5475 21.5669C43.1703 21.8666 40.9274 22.1467 38.6975 22.5735C34.0506 23.4732 33.4543 24.1864 33.4276 28.939C33.4074 32.0648 33.4276 35.2445 33.4478 38.3172C33.4615 39.63 33.4681 40.9424 33.4746 42.2553C33.4811 43.7018 33.3808 44.9951 32.082 46.0946C26.1026 51.1735 20.1896 56.3528 15.7037 60.292L15.5896 60.3915C12.0942 63.4648 8.48683 66.637 5.09047 69.9165C4.13973 70.8363 3.07041 72.2893 2.9277 73.6093L2.86247 74.1756C2.19975 80.1542 1.50969 86.3397 1.43606 92.4188C1.22232 109.673 1.18848 127.644 1.33575 147.359C1.35595 150.512 2.31315 153.785 3.15051 156.678C4.71053 162.03 8.62107 165.296 14.4604 166.122C19.1738 166.851 23.9278 167.292 28.6955 167.442C37.2398 167.582 45.9378 167.562 54.3413 167.542C57.5018 167.528 60.6688 167.542 63.8227 167.522L64.9207 167.528C66.7495 167.528 68.6444 167.536 70.499 167.449C73.2711 167.315 76.0496 167.155 78.8217 166.995C83.7436 166.708 88.8257 166.415 93.8414 166.288C98.7156 166.162 103.678 166.175 108.478 166.182C112.014 166.188 115.676 166.195 119.272 166.148C120.786 166.128 122.306 166.115 123.819 166.101C129.779 166.055 135.932 166.002 141.952 165.509C150.542 164.802 154.386 161.569 156.134 153.591C157.112 149.175 157.703 144.682 157.901 140.164C158.257 131.392 158.397 122.461 158.537 113.822C158.571 111.743 158.605 109.661 158.638 107.577C158.685 104.991 158.692 102.358 158.698 99.8121C158.705 96.7927 158.712 93.6668 158.779 90.5942C158.833 88.2681 158.966 85.9018 159.087 83.616C159.214 81.2231 159.347 78.7511 159.395 76.3239C159.507 70.6768 157.599 66.6441 153.548 63.9977ZM125.438 86.7652C126.697 81.4463 126.603 75.9405 126.503 70.6216C126.489 69.635 126.469 68.6556 126.456 67.6761C126.436 65.0095 126.255 62.297 126.088 59.6713C125.994 58.2579 125.907 56.8513 125.833 55.4386C125.8 54.6848 125.806 53.9393 125.82 53.1525C125.82 52.7925 125.826 52.419 125.826 52.0389C125.826 51.9823 125.841 51.9267 125.867 51.8767C125.894 51.8268 125.933 51.7843 125.98 51.7526C126.028 51.7232 126.083 51.706 126.139 51.7025C126.195 51.699 126.251 51.7092 126.302 51.7323C129.315 53.1457 141.14 63.9228 147.749 71.2819C147.809 71.3513 147.841 71.4428 147.836 71.5349C147.831 71.5803 147.817 71.6251 147.794 71.6646C147.772 71.7049 147.742 71.7399 147.706 71.7684L126.392 88.0495C126.335 88.0962 126.264 88.1222 126.191 88.1228C126.127 88.1196 126.066 88.0995 126.011 88.0657C125.957 88.0313 125.913 87.984 125.883 87.9282C125.789 87.7148 125.703 87.5552 125.635 87.4352C125.484 87.2471 125.412 87.0065 125.436 86.7665L125.438 86.7652ZM87.7401 19.3524C91.7151 14.6822 96.4916 10.3683 104.433 10.3683H104.734C104.788 10.3696 104.841 10.3833 104.889 10.4088C104.936 10.4343 104.977 10.4705 105.008 10.5146C105.038 10.5593 105.057 10.6107 105.063 10.6641C105.068 10.7175 105.061 10.7711 105.042 10.8211C103.822 13.9543 101.755 16.6906 99.0695 18.7266C97.7434 19.8001 96.0693 20.3534 94.362 20.283C93.4432 20.2656 92.5264 20.1949 91.6167 20.0701C90.4287 19.8957 89.2264 19.8394 88.0274 19.9029C87.961 19.9072 87.8958 19.893 87.8378 19.8611C87.7798 19.8292 87.7329 19.7815 87.7016 19.7236C87.6703 19.6651 87.6573 19.5988 87.6645 19.533C87.671 19.4671 87.697 19.4046 87.7401 19.3537V19.3524ZM84.6995 27.7779C88.1349 26.5714 105.752 27.0979 116.117 28.7306C116.195 28.7413 116.267 28.7805 116.319 28.8402C116.37 28.8999 116.399 28.976 116.399 29.0549V30.7075C116.405 31.9873 116.412 33.2144 116.392 34.4475C116.378 35.1071 116.331 35.78 116.284 36.4928C116.258 36.8327 116.231 37.1927 116.211 37.5728C116.204 37.6572 116.167 37.736 116.105 37.7939C116.043 37.8519 115.961 37.885 115.877 37.8864H85.6704C85.587 37.8869 85.5069 37.8563 85.445 37.8009C85.3831 37.7455 85.344 37.6692 85.3362 37.5868L84.4786 28.1212C84.4734 28.0481 84.4923 27.9758 84.532 27.9141C84.5718 27.8524 84.6304 27.8051 84.6995 27.7792V27.7779ZM85.2423 47.3602C85.2449 47.2959 85.2658 47.2341 85.3023 47.181C85.3394 47.1279 85.3902 47.0857 85.4495 47.06C87.813 46.1201 110.292 45.8003 115.897 46.6267C115.971 46.6369 116.039 46.6727 116.091 46.7274C116.142 46.7822 116.172 46.8523 116.178 46.9269C117.179 58.948 117.47 71.0179 117.048 83.0724C117.046 83.1392 117.023 83.2028 116.984 83.2566C116.945 83.3098 116.89 83.3507 116.827 83.3728C114.142 84.3256 98.3207 85.3388 89.2629 85.3388C87.5211 85.3661 85.7799 85.2967 84.0466 85.1319C83.9632 85.1209 83.8869 85.0787 83.8322 85.0145C83.7781 84.9509 83.7494 84.8692 83.752 84.7855L85.2423 47.3602ZM54.9897 10.8547C55.9066 8.77518 57.1122 8.08891 59.275 8.42231C60.3079 8.55963 61.3016 8.9062 62.1942 9.44153C66.6745 12.3008 69.7209 15.4935 71.8036 19.4924C71.8296 19.5404 71.844 19.5941 71.844 19.6489C71.844 19.7037 71.8296 19.758 71.8036 19.806C71.7762 19.8544 71.7377 19.8955 71.6908 19.9257C71.6446 19.9559 71.5911 19.9739 71.5357 19.9789C70.471 20.0658 69.4394 20.1926 68.4418 20.3197C66.8244 20.5535 65.194 20.6891 63.5601 20.7257C63.0981 20.7257 62.6432 20.7127 62.1877 20.6725C59.1478 20.4195 56.4494 18.9211 55.1565 16.7534C54.6436 15.8598 54.36 14.8543 54.3309 13.8256C54.3018 12.7969 54.5281 11.7769 54.9897 10.856V10.8547ZM40.3584 28.7775C46.5327 27.3712 71.1943 26.4513 77.0128 27.4042C77.0903 27.4171 77.1607 27.4565 77.2122 27.5156C77.2636 27.5748 77.2923 27.6503 77.2943 27.7285V37.3531C77.2936 37.426 77.2689 37.4968 77.2246 37.5545C77.1796 37.6123 77.117 37.6539 77.0467 37.6729C75.6535 38.0466 67.5712 38.2329 59.3421 38.2329C51.0252 38.2329 42.5552 38.0462 40.7273 37.659C40.6544 37.6459 40.588 37.6089 40.5393 37.5533C40.4907 37.4975 40.4624 37.4268 40.4595 37.3531L40.0978 29.1151C40.0932 29.0371 40.1171 28.9603 40.165 28.8985C40.2129 28.8366 40.2816 28.7942 40.3584 28.7787V28.7775ZM41.6109 50.8461C41.6044 49.0399 41.5998 47.205 41.5972 45.3408C41.6 45.2499 41.6387 45.1636 41.7048 45.1007C41.7744 45.0428 41.8616 45.0095 41.9524 45.007L76.5644 46.4867C76.6518 46.4903 76.7345 46.5277 76.7945 46.5912C76.8544 46.6548 76.887 46.7396 76.8857 46.8269L76.0483 84.9788C76.0483 85.0249 76.0386 85.0703 76.019 85.1118C75.9995 85.1533 75.9708 85.1896 75.935 85.2188C75.8737 85.2733 75.7955 85.3038 75.7141 85.3057C75.7004 85.3057 75.6939 85.3057 75.6873 85.2986C71.5357 84.9386 67.3235 84.9055 63.2454 84.8789C56.3224 84.8257 49.1576 84.7719 42.0671 83.0724C42.0045 83.0588 41.9473 83.0264 41.9031 82.9803C41.8588 82.9336 41.8295 82.8759 41.8188 82.813C41.7322 82.3336 41.6181 81.8737 41.5113 81.4138C41.2423 80.4603 41.094 79.477 41.0695 78.4871C41.1092 75.888 41.2167 73.2486 41.3236 70.6956C41.4305 68.1425 41.538 65.4967 41.5784 62.9037C41.6442 58.9256 41.6311 54.9994 41.6109 50.8474V50.8461ZM12.972 72.9548L32.4508 56.3451C32.4964 56.3066 32.5514 56.2808 32.6102 56.2703C32.669 56.2598 32.7296 56.2651 32.7857 56.2855C32.8406 56.3053 32.8893 56.3386 32.9269 56.3831C32.9645 56.4274 32.9898 56.4811 33.0001 56.5382C33.0803 56.9514 33.1604 57.3049 33.2341 57.6182C33.3791 58.1215 33.4579 58.6411 33.4687 59.1645C33.395 61.4639 33.3012 63.7633 33.2139 66.0629C33.0601 69.8951 32.8998 73.8545 32.8327 77.747C32.7687 79.9271 33.0075 82.1047 33.5424 84.2192C33.8775 85.6949 34.6088 87.0519 35.6584 88.1462C36.708 89.2398 38.0363 90.0298 39.5016 90.4314C42.3352 91.3252 45.2551 91.9219 48.2134 92.2106C54.6613 92.6238 61.2298 92.7905 67.5849 92.9572L69.5665 93.0039L74.689 93.144C81.7671 93.3438 89.0903 93.5371 96.2837 93.4839C100.328 93.4573 104.446 93.144 108.43 92.8437C110.446 92.6906 112.528 92.5304 114.584 92.4104C115.515 92.3572 116.425 92.3708 117.59 92.3838C118.193 92.3903 118.856 92.3974 119.62 92.3974C119.689 92.3987 119.756 92.4208 119.812 92.461C119.868 92.5012 119.911 92.5583 119.934 92.6238C119.957 92.688 119.96 92.7574 119.942 92.8236C119.924 92.8891 119.886 92.9475 119.833 92.9903C106.494 103.828 92.3667 113.668 77.5686 122.43C77.5158 122.462 77.4559 122.478 77.3946 122.477C77.3451 122.48 77.2962 122.468 77.2539 122.444C63.6676 116.022 17.9675 81.1797 12.9121 73.3881C12.8674 73.3213 12.849 73.2409 12.8601 73.1611C12.8711 73.0813 12.9109 73.008 12.972 72.9561V72.9548ZM10.7564 146.259C10.7266 146.262 10.6967 146.257 10.6692 146.246C10.605 146.231 10.5469 146.196 10.5027 146.148C10.4585 146.098 10.4302 146.037 10.4216 145.973C10.3883 145.713 10.3413 145.454 10.3009 145.206C10.1915 144.664 10.1286 144.113 10.1133 143.56C10.1003 140.706 10.0959 137.855 10.1003 135.008C10.1068 130.616 10.1067 126.077 10.0533 121.611C9.95947 114.066 9.83247 106.395 9.7054 98.9734C9.6246 94.5542 9.55096 90.1395 9.48449 85.7293C9.47081 84.9963 9.51766 84.2562 9.56458 83.5434C9.58478 83.2099 9.60505 82.8765 9.61808 82.5367C9.62056 82.475 9.64069 82.4147 9.67627 82.3641C9.71185 82.3129 9.76131 82.2733 9.81872 82.2499C9.87541 82.2247 9.93816 82.2156 9.99981 82.224C10.0615 82.2318 10.1195 82.2571 10.1674 82.2967L40.8147 107.585C40.8817 107.641 40.9245 107.72 40.9344 107.807C40.9444 107.894 40.9206 107.981 40.868 108.051L11.0177 146.127C10.9869 146.168 10.9474 146.2 10.902 146.224C10.8567 146.246 10.8067 146.259 10.7558 146.261L10.7564 146.259ZM145.206 157.317C145.183 157.371 145.146 157.419 145.099 157.456C145.052 157.492 144.996 157.515 144.938 157.524C144.268 157.603 143.659 157.69 143.09 157.777C142.056 157.956 141.01 158.063 139.962 158.096C135.449 158.117 130.929 158.11 126.408 158.103C118.681 158.09 110.692 158.077 102.838 158.203C96.6108 158.31 90.2762 158.63 84.156 158.943C81.384 159.083 78.6054 159.223 75.8333 159.343L75.6456 159.35C75.4847 159.356 75.3244 159.37 75.1569 159.37C71.668 159.437 68.1746 159.514 64.6777 159.603C57.1715 159.783 49.4241 159.963 41.7634 159.963H39.7349C34.0233 159.936 28.2243 159.483 22.6196 159.043C21.1 158.923 19.5796 158.803 18.0665 158.696C16.9259 158.565 15.8018 158.316 14.7119 157.957C14.1698 157.79 13.6002 157.624 13.0112 157.477C12.9631 157.468 12.918 157.446 12.8797 157.417C12.8413 157.386 12.8107 157.347 12.7903 157.303C12.7677 157.259 12.7553 157.21 12.7542 157.161C12.7531 157.112 12.7632 157.062 12.7837 157.017C14.6735 152.818 43.1097 117.845 48.1716 113.513C48.229 113.465 48.3008 113.437 48.3758 113.433C48.4508 113.429 48.5249 113.45 48.5868 113.493C49.1895 113.933 49.7987 114.386 50.4113 114.839C51.7641 115.845 53.1566 116.879 54.5896 117.845C58.118 120.218 61.6558 122.578 65.2029 124.924C68.331 127.003 71.4641 129.075 74.5776 131.169C77.0147 132.802 79.1176 131.875 81.0288 130.636C86.5736 127.05 92.1178 123.466 97.6619 119.885L105.978 114.512C106.681 114.053 107.384 113.593 108.175 113.073L109.306 112.326C109.377 112.282 109.462 112.266 109.544 112.279C109.627 112.293 109.702 112.336 109.755 112.4L145.157 156.983C145.194 157.029 145.218 157.085 145.226 157.144C145.235 157.203 145.227 157.263 145.205 157.318L145.206 157.317ZM150.81 87.6979C150.591 89.0802 150.504 90.4787 150.549 91.8772C150.744 94.9836 150.642 98.1561 150.542 101.222L150.488 102.882C150.435 104.641 150.335 106.428 150.234 108.16C150.134 109.907 150.026 111.713 149.974 113.486C149.92 115.367 149.92 117.278 149.914 119.13C149.914 120.769 149.914 122.462 149.873 124.129C149.833 125.895 149.753 127.688 149.678 129.421C149.597 131.274 149.517 133.194 149.477 135.08C149.43 137.526 149.443 140.025 149.457 142.438C149.457 143.518 149.463 144.597 149.463 145.677C149.462 145.749 149.438 145.819 149.394 145.877C149.351 145.934 149.291 145.976 149.222 145.997L148.31 146.264C148.279 146.271 148.247 146.275 148.216 146.277C148.17 146.277 148.124 146.267 148.081 146.249C148.039 146.23 148 146.203 147.968 146.17C141.191 139.059 134.991 131.24 128.991 123.675C124.8 118.383 120.468 112.917 115.928 107.679C115.898 107.644 115.875 107.604 115.862 107.56C115.848 107.517 115.843 107.471 115.848 107.425C115.861 107.336 115.908 107.254 115.981 107.199L150.292 80.9046C150.336 80.8709 150.387 80.8489 150.443 80.8411C150.497 80.8326 150.554 80.8391 150.606 80.8579C150.659 80.8768 150.707 80.9085 150.744 80.9507C150.782 80.9922 150.808 81.0435 150.821 81.0979C151.206 83.282 151.202 85.5159 150.809 87.6979H150.81Z" fill="black"/>
</g>
<defs>
<clipPath id="clip0">
<rect width="159" height="168" fill="white" transform="translate(0.777344)"/>
</clipPath>
</defs>
</svg>

<svg xmlns="http://www.w3.org/2000/svg" width="160" height="168" fill="none" viewBox="0 0 160 168"><g clip-path="url(#a)"><path fill="#000" d="M153.548 63.998a19 19 0 0 1-2.39-1.9 2942 2942 0 0 1-7.326-6.631c-5.37-4.88-10.928-9.918-16.446-14.817a6.23 6.23 0 0 1-2.229-4.792 63 63 0 0 0-1.185-10.465c-.71-3.213-1.976-4.206-5.652-4.426-1.125-.073-2.281-.08-3.401-.086a69 69 0 0 1-2.611-.04 13 13 0 0 1-1.715-.214q-.35-.062-.669-.113a.31.31 0 0 1-.248-.167.3.3 0 0 1-.042-.148.3.3 0 0 1 .029-.152c.368-.806.75-1.58 1.124-2.34a32.4 32.4 0 0 0 2.056-4.758c1.118-3.626-.429-6.959-4.04-8.692a12.4 12.4 0 0 0-8.23-.966c-4.399.933-8.223 3.048-12.608 5.919a.34.34 0 0 1-.368 0c-4.6-3-9.113-3.126-13.412-.367a.335.335 0 0 1-.396-.02 99 99 0 0 1-2.02-1.713 54 54 0 0 0-4.279-3.433C64.37 1.504 61.564.452 58.82.452c-.784.001-1.565.086-2.33.252-3.944.854-7.266 3.827-8.879 7.946-1.46 3.72-1.206 7.531.683 10.21q.331.517.542 1.093c.094.214.196.448.315.714a.34.34 0 0 1-.117.415.35.35 0 0 1-.144.058q-1.706.23-3.342.427c-2.377.3-4.62.58-6.85 1.006-4.646.9-5.243 1.613-5.27 6.366-.02 3.126 0 6.306.02 9.378q.02 1.969.028 3.938c.006 1.447-.094 2.74-1.393 3.84-5.98 5.078-11.892 10.258-16.378 14.197l-.114.1c-3.496 3.073-7.103 6.245-10.5 9.524-.95.92-2.02 2.373-2.162 3.693l-.066.567C2.2 80.154 1.51 86.34 1.436 92.419c-.214 17.254-.248 35.225-.1 54.94.02 3.153.977 6.426 1.815 9.319 1.56 5.352 5.47 8.618 11.31 9.444 4.713.729 9.467 1.17 14.234 1.32 8.545.14 17.243.12 25.646.1 3.16-.014 6.328 0 9.482-.02l1.098.006c1.828 0 3.723.008 5.578-.079 2.772-.134 5.55-.294 8.323-.454 4.922-.287 10.004-.58 15.02-.707 4.874-.126 9.836-.113 14.636-.106 3.536.006 7.198.013 10.794-.034 1.514-.02 3.034-.033 4.547-.047 5.96-.046 12.113-.099 18.133-.592 8.59-.707 12.434-3.94 14.182-11.918a78 78 0 0 0 1.767-13.427c.356-8.772.496-17.703.636-26.342l.101-6.245c.047-2.586.054-5.219.06-7.765.007-3.02.014-6.145.081-9.218.054-2.326.187-4.692.308-6.978.127-2.393.26-4.865.308-7.292.112-5.647-1.796-9.68-5.847-12.326m-28.11 22.767c1.259-5.319 1.165-10.824 1.065-16.143-.014-.987-.034-1.966-.047-2.946-.02-2.666-.201-5.379-.368-8.005-.094-1.413-.181-2.82-.255-4.232-.033-.754-.027-1.5-.013-2.286 0-.36.006-.734.006-1.114q.001-.086.041-.162a.35.35 0 0 1 .113-.124.35.35 0 0 1 .322-.02c3.013 1.413 14.838 12.19 21.447 19.549.06.07.092.16.087.253a.34.34 0 0 1-.13.234l-21.314 16.28a.32.32 0 0 1-.201.074.37.37 0 0 1-.308-.195 5 5 0 0 0-.248-.493.92.92 0 0 1-.199-.669zM87.74 19.352c3.975-4.67 8.752-8.984 16.693-8.984h.301a.35.35 0 0 1 .274.147.34.34 0 0 1 .034.306 18.2 18.2 0 0 1-5.972 7.906 7.02 7.02 0 0 1-4.708 1.556 24 24 0 0 1-2.745-.213 18 18 0 0 0-3.59-.167.35.35 0 0 1-.325-.18.33.33 0 0 1-.037-.19.33.33 0 0 1 .075-.18m-3.04 8.426c3.435-1.207 21.052-.68 31.417.953a.33.33 0 0 1 .282.324v1.652c.006 1.28.013 2.507-.007 3.74-.014.66-.061 1.333-.108 2.046q-.041.51-.073 1.08a.34.34 0 0 1-.334.313H85.67a.335.335 0 0 1-.334-.3l-.857-9.465a.34.34 0 0 1 .22-.342zm.542 19.582a.34.34 0 0 1 .207-.3c2.364-.94 24.843-1.26 30.448-.433a.33.33 0 0 1 .281.3 306 306 0 0 1 .87 36.145.33.33 0 0 1-.221.3c-2.685.954-18.506 1.967-27.564 1.967a47 47 0 0 1-5.216-.207.34.34 0 0 1-.295-.347zM54.99 10.855c.917-2.08 2.122-2.766 4.285-2.433a7.6 7.6 0 0 1 2.92 1.02c4.48 2.859 7.526 6.051 9.609 10.05a.33.33 0 0 1 0 .314.34.34 0 0 1-.268.173 68 68 0 0 0-3.094.34 40 40 0 0 1-4.882.407c-.462 0-.917-.013-1.372-.053-3.04-.253-5.739-1.752-7.032-3.92a6.24 6.24 0 0 1-.166-5.897zM40.358 28.778c6.175-1.407 30.836-2.327 36.655-1.374a.34.34 0 0 1 .281.325v9.624a.34.34 0 0 1-.247.32c-1.394.374-9.476.56-17.705.56-8.317 0-16.787-.187-18.615-.574a.326.326 0 0 1-.267-.306l-.362-8.238a.32.32 0 0 1 .26-.336zm1.253 22.068q-.01-2.709-.014-5.505a.35.35 0 0 1 .108-.24.4.4 0 0 1 .247-.094l34.612 1.48a.336.336 0 0 1 .322.34l-.838 38.152a.31.31 0 0 1-.113.24.34.34 0 0 1-.22.087c-.015 0-.021 0-.028-.007-4.151-.36-8.364-.394-12.442-.42-6.923-.053-14.087-.107-21.178-1.807a.32.32 0 0 1-.248-.259c-.087-.48-.2-.94-.308-1.4a12 12 0 0 1-.442-2.926c.04-2.599.148-5.238.255-7.791s.214-5.2.254-7.792c.066-3.978.053-7.905.033-12.057M12.972 72.955l19.479-16.61a.34.34 0 0 1 .476.038.33.33 0 0 1 .073.155c.08.413.16.767.234 1.08.145.503.224 1.023.235 1.546-.074 2.3-.168 4.6-.255 6.899-.154 3.832-.314 7.791-.381 11.684a23.6 23.6 0 0 0 .71 6.472 8.34 8.34 0 0 0 2.115 3.927 8.4 8.4 0 0 0 3.844 2.285 42.8 42.8 0 0 0 8.711 1.78c6.448.413 13.017.58 19.372.746l1.982.047 5.122.14c7.078.2 14.401.393 21.595.34 4.044-.027 8.162-.34 12.146-.64 2.016-.153 4.098-.314 6.154-.434.931-.053 1.841-.04 3.006-.026.603.006 1.266.013 2.03.013a.34.34 0 0 1 .322.427.33.33 0 0 1-.109.166 349 349 0 0 1-42.264 29.44.3.3 0 0 1-.174.047.25.25 0 0 1-.141-.033c-13.586-6.422-59.287-41.264-64.342-49.056a.326.326 0 0 1 .06-.432zm-2.216 73.304a.2.2 0 0 1-.087-.013.33.33 0 0 1-.166-.098.33.33 0 0 1-.081-.175c-.034-.26-.08-.519-.121-.767a9.7 9.7 0 0 1-.188-1.646q-.02-4.281-.013-8.552c.007-4.392.007-8.931-.047-13.397-.094-7.545-.22-15.216-.348-22.638q-.12-6.628-.22-13.244c-.014-.733.033-1.473.08-2.186q.032-.498.053-1.006a.32.32 0 0 1 .2-.287.34.34 0 0 1 .35.047l30.647 25.288a.34.34 0 0 1 .053.466l-29.85 38.076a.34.34 0 0 1-.262.134zm134.45 11.058a.36.36 0 0 1-.107.139.36.36 0 0 1-.161.068c-.67.079-1.279.166-1.848.253-1.034.179-2.08.286-3.128.319-4.513.021-9.033.014-13.554.007-7.727-.013-15.716-.026-23.57.1-6.227.107-12.562.427-18.682.74-2.772.14-5.55.28-8.323.4l-.187.007c-.161.006-.322.02-.49.02q-5.232.1-10.478.233c-7.506.18-15.254.36-22.915.36h-2.028c-5.712-.027-11.51-.48-17.115-.92-1.52-.12-3.04-.24-4.553-.347a17 17 0 0 1-3.355-.739 33 33 0 0 0-1.7-.48.3.3 0 0 1-.132-.06.3.3 0 0 1-.09-.114.33.33 0 0 1-.006-.286c1.89-4.199 30.326-39.172 35.388-43.504a.35.35 0 0 1 .415-.02c.602.44 1.212.893 1.824 1.346 1.353 1.006 2.746 2.04 4.179 3.006a1652 1652 0 0 0 10.613 7.079c3.128 2.079 6.261 4.151 9.375 6.245 2.437 1.633 4.54.706 6.45-.533q8.319-5.38 16.634-10.751l8.316-5.373c.703-.459 1.406-.919 2.197-1.439l1.131-.747a.35.35 0 0 1 .449.074l35.402 44.583a.33.33 0 0 1 .048.335zm5.604-69.62a22 22 0 0 0-.261 4.18c.195 3.107.093 6.28-.007 9.345l-.054 1.66a189 189 0 0 1-.254 5.278c-.1 1.747-.208 3.553-.26 5.326-.054 1.881-.054 3.792-.06 5.644 0 1.639 0 3.332-.041 4.999-.04 1.766-.12 3.559-.195 5.292a254 254 0 0 0-.201 5.659c-.047 2.446-.034 4.945-.02 7.358 0 1.08.006 2.159.006 3.239a.34.34 0 0 1-.241.32l-.912.267a1 1 0 0 1-.094.013.35.35 0 0 1-.248-.107c-6.777-7.111-12.977-14.93-18.977-22.495-4.191-5.292-8.523-10.758-13.063-15.996a.3.3 0 0 1-.066-.119.3.3 0 0 1-.014-.135.35.35 0 0 1 .133-.226l34.311-26.294a.33.33 0 0 1 .314-.047.33.33 0 0 1 .215.24 18.8 18.8 0 0 1-.012 6.6z"/></g><defs><clipPath id="a"><path fill="#fff" d="M.777 0h159v168h-159z"/></clipPath></defs></svg>
